X:1
T:Title
%%score { 1 | 2 }
L:1/8
Q:1/4=87
M:6/8
K:Eb
V:1 treble nm="Grand Piano"
V:2 bass 
V:1
 G>FE e>[Ed][Ec] | c3 B3 | G>EG [GB]2 [EG] | [DF]6 | G>FE e>[Ed][Ec] | c3 B3 | B>AG [EG]2 [DF] | %7
w: F.~D.~Jacobs * * * * *|||||||
 E6 | c>cc e>dc | c3 B3 | BG[Ge] [Fd]2 [Ec] | [DB]6 | G>_G=G A>GA | B3 c3 | BAG G2 [DF] | E6 |] %16
w: |||||||||
V:2
 [E,B,E]>[E,A,E][E,G,] [A,,CE]>[A,,B,][A,,A,] | [E,A,E]3 [E,G,E]3 | %2
 [E,B,E]>[E,G,][E,B,E] [E,E]2 [E,B,] | [B,,B,]6 | [E,B,E]>[E,A,E][E,G,] [A,,CE]>[A,,B,][A,,A,] | %5
 [E,A,E]3 [E,G,E]3 | [E,G,E]>[E,CE][E,B,E] [B,,B,]2 [B,,A,] | [E,G,]6 | %8
 [A,E]>[A,E][A,E] [A,CE]>[A,B,E][A,E] | [E,A,E]3 [E,G,E]3 | [E,G,E][E,B,E][E,B,] [F,B,]2 [F,=A,] | %11
 [B,,B,]6 | [E,B,E]>[E,=A,E][E,B,E] [F,B,D]>[F,B,D][F,B,D] | [G,B,E]3 [A,E]3 | %14
 [G,B,E][A,CF][B,E][K:bass] [B,E]2 [B,,A,] | [E,G,]6 |] %16

